X:1
T:Heavenly Flight, LM
T:Heavenly Flight, LM
T:Nahum Mitchell, 1816
T:Public Domain Courtesy of the Cyber Hymnal™
C:Nahum Mitchell, 1816
Z:Public Domain
Z:Courtesy of the Cyber Hymnal™
%%score ( 1 2 ) ( 3 4 )
L:1/8
M:3/4
K:G
V:1 treble 
V:2 treble 
V:3 bass 
V:4 bass 
V:1
 [DG]2 | [DB]4 [Fd]2 | [Gd]4 ([DB][EA]) | [DG]4 [DF]2 | !fermata![DG]4 [DB]2 | [Dd]4 (cB) | %6
 [FA]4 [EG]2 | d4 [E^c]2 | !fermata![Dd]4 [Fd]2 | [Gd]4 (BA) | [DG]4 D2 | [DG]4 [GB]2 | %12
 !fermata![FA]4 [DG]2 | G4 [GB]2 | (3(dB{[e'g']}e d2) [Ac]2 | [GB]4 [FA]2 | G6 |] %17
V:2
 x2 | x6 | x6 | x6 | x6 | x4 G2 | x6 | (D>E F2) x2 | x6 | x4 D2 | x4 D2 | x6 | x6 |{[GB]} G4 x2 | %14
 B4 x2 | x6 | G6 |] %17
V:3
 [G,B,]2 | [G,B,]4 [D,A,]2 | G,4 (G,[C,A,]) | [D,B,]4 [D,D]2 | !fermata![G,,D]4 [G,D]2 | %5
 [G,B,]4 (G,/A,/B,) | [D,D]4 [E,B,]2 | A,4 [A,,A,]2 | !fermata![D,A,]4 [F,B,]2 | [G,B,]4 D2 | %10
 [B,D]4 (DC) | [G,B,]4 [G,,B,]2 | !fermata![D,A,]4 [G,B,]2 | [E,B,]4 [G,D]2 | [G,D]4 [C,E]2 | %15
 [D,D]4 [D,D]2 | [G,,B,]6 |] %17
V:4
 x2 | x6 | G,4 G,2 | x6 | x6 | x4 C,2 | x6 | (F,>G, A,2) x2 | x6 | x4 (G,A,) | x4 A,2 | x6 | x6 | %13
 x6 | x6 | x6 | x6 |] %17

